X:1
T:right here waiting
M:4/4
L:1/8
V:1
Q:1/4=80
K:C
|zG,CDD2E2|zEDCD3/2C/2A,2|z2zA,CC2D2|B,3A,G,4|
|zG,CDD2E2|zEDCD3/2C/2A,2|z2zA,CC2D2|B,3CC4|
|zCDEF4E|C2D3/2C/2A,2z2|zCDEF3E|C2A,G,z4|
|GGFED4|DDEFE3C|C2D2E2D2|C2B,A,G,4|
|GGFED4|DDEFE3C|D2E2F2E2|D2CB,C4|